X:215
T: Der Jger und das Mgdelein (2d), S. 33
N: T0103
O: Luxemburg
S: Singendes Volk, Esch-Alzette 1937 posth.]
N: STRASSEN; gesungen von Frau Witry am 10.1.1933
R: "erzhlende Lieder"]
M: 2/4
L: 1/8
K: Bb
F2 | B2B2 | B2d2 | B3F | F2
F2 | G2G2 | BAGF | F3E | D2
F2 | B2B2 | cedc | d2c2 | B2

